websrv/static/images/logo.svg

<svg width="172" height="40" viewBox="0 0 172 40" fill="none" xmlns="http://www.w3.org/2000/svg">
<g clip-path="url(#clip0_1225_89)">
<path d="M63.4093 10.2969V28.6271L66.8664 28.6276V25.7733L68.2024 24.1236L70.7959 28.6276H74.909L70.5607 21.2431L74.5686 16.0061H70.3774L66.8674 20.903V10.2969H63.4093Z" fill="#0A2A42"/>
<path d="M54.8188 21.3471C55.4716 21.7704 56.0775 22.2619 56.6262 22.8135C57.0192 23.2326 57.2289 23.6777 57.2289 24.1231C57.2289 25.0918 56.4168 25.5894 54.7927 25.5894C53.8158 25.5797 52.8454 25.4297 51.9111 25.1442L50.5488 24.6205V28.2604C52.3041 28.758 53.7971 28.9936 55.0284 28.9936C58.8787 28.9936 61.1055 27.2915 61.1055 24.0444C61.1055 22.3164 60.1624 20.719 58.3026 19.2786L57.3074 18.5717L56.2855 17.7862L55.4734 17.0791C54.871 16.5291 54.6092 16.0317 54.6092 15.5866C54.6092 14.7225 55.4999 14.2249 56.5738 14.2249C57.9184 14.2357 59.2467 14.5208 60.4772 15.0628V11.5016C59.1214 11.0321 57.6943 10.8018 56.2596 10.8208C54.5567 10.8208 53.2208 11.292 52.2253 12.2085C51.7477 12.6252 51.3668 13.1409 51.1089 13.7197C50.8511 14.2986 50.7225 14.9266 50.7323 15.5602C50.7323 17.5504 51.5705 18.8073 53.3782 20.2997C53.5352 20.4306 54.0067 20.7712 54.8188 21.3471Z" fill="#0A2A42"/>
<path d="M81.1831 21.3997C81.7072 22.9709 81.969 23.8088 81.9953 23.9398C82.0137 23.7364 82.346 22.7619 82.5949 22.0319L82.595 22.0316C82.6984 21.7284 82.7874 21.4673 82.8335 21.3214L84.5625 16.0056H88.1512L83.8026 28.0511L81.9953 33.393H78.1181L79.9518 27.9989L75.3674 16.0057H79.2968L81.1831 21.3997Z" fill="#0A2A42"/>
<path d="M90.7583 14.5922V28.6272L94.478 28.6266V14.5915H98.2758V11.1875H86.9597V14.5922H90.7583Z" fill="#0A2A42"/>
<path d="M98.662 28.6269V16.0055H102.12V18.2311C102.67 16.5553 103.849 15.7173 105.709 15.7173V18.8595C104.215 18.8595 102.644 19.9593 102.12 21.5567V28.6267L98.662 28.6269Z" fill="#0A2A42"/>
<path fill-rule="evenodd" clip-rule="evenodd" d="M111.401 15.7172C110.156 15.7225 108.923 15.9533 107.76 16.3983V19.017C108.714 18.6532 109.726 18.4668 110.746 18.467C112.659 18.467 113.837 19.4619 113.811 21.2689C112.801 20.4637 111.54 20.0375 110.249 20.0642C108.86 20.0642 107.76 20.4832 106.896 21.3474C106.057 22.1853 105.638 23.2589 105.638 24.5683C105.638 27.2129 107.498 28.9152 110.249 28.9152C111.846 28.9152 112.763 28.47 113.811 27.5271V28.6266H117.112V20.8759C117.112 17.4456 115.2 15.7172 111.401 15.7172ZM111.349 22.8137C112.816 22.8137 113.811 23.4945 113.811 24.516C113.811 25.5371 112.789 26.1393 111.244 26.1394C109.908 26.1394 109.096 25.4847 109.096 24.4636C109.096 23.3899 109.986 22.8137 111.349 22.8137Z" fill="#0A2A42"/>
<path d="M123.3 13.8325H119.842V10.3758H123.3V13.8325Z" fill="#0A2A42"/>
<path d="M119.842 28.6274V16.0058H123.3V28.6274H119.842Z" fill="#0A2A42"/>
<path d="M126.043 16.0056V28.627H129.502V22.0281C129.423 20.169 130.68 18.8596 132.147 18.8596C133.588 18.8596 134.217 20.0641 134.217 21.6615V28.6263H137.675V20.6661C137.675 17.838 136.339 15.7168 133.431 15.7168C131.833 15.7168 130.235 16.4764 129.502 17.5238V16.0056H126.043Z" fill="#0A2A42"/>
<path fill-rule="evenodd" clip-rule="evenodd" d="M152.093 26.5313C150.678 28.1286 148.792 28.9143 146.435 28.9143C144.417 28.9143 142.767 28.3118 141.51 27.0811C140.279 25.8505 139.65 24.2531 139.65 22.3415C139.65 20.5872 140.278 19.0422 141.536 17.7067C142.793 16.3712 144.391 15.7165 146.303 15.7165C150.94 15.7165 152.643 19.3826 152.643 22.2369C152.645 22.6921 152.619 23.1469 152.564 23.5987H143.291C143.71 25.0388 145.02 25.903 146.696 25.903C147.954 25.903 148.949 25.5101 149.709 24.7246L152.093 26.5313ZM148.871 20.9801C148.803 20.3468 148.497 19.7626 148.016 19.3448C147.535 18.9271 146.914 18.7067 146.277 18.7279C144.706 18.7279 143.448 19.6444 143.212 20.9801H148.871Z" fill="#0A2A42"/>
<path d="M154.763 16.0055V28.6269L158.221 28.6267V21.5567C158.745 19.9593 160.316 18.8595 161.809 18.8595V15.7173C159.95 15.7173 158.771 16.5553 158.221 18.2311V16.0055H154.763Z" fill="#0A2A42"/>
<g clip-path="url(#clip1_1225_89)">
<path d="M37.5745 15.729L27.2371 5.1724C26.6961 4.61788 26.0517 4.1776 25.3413 3.87711C24.6309 3.57661 23.8686 3.42188 23.0987 3.42188C22.3287 3.42188 21.5665 3.57661 20.8561 3.87711C20.1457 4.1776 19.5013 4.61788 18.9603 5.1724C17.862 6.29812 17.2461 7.81653 17.2461 9.39865C17.2461 10.9808 17.862 12.4992 18.9603 13.6249L20.2186 14.91L27.7681 22.6198C28.9003 23.7781 29.728 25.205 30.1755 26.7702C30.6231 28.3354 30.6764 29.9891 30.3305 31.5804L37.54 24.2177C37.5518 24.2056 37.5642 24.1949 37.5761 24.1831C38.6746 23.0571 39.2904 21.5382 39.2901 19.9557C39.2898 18.3732 38.6734 16.8546 37.5745 15.729Z" fill="#4D4DDB"/>
<path d="M19.8044 24.9577L12.2558 17.2477C11.1236 16.0894 10.296 14.6625 9.84842 13.0974C9.40084 11.5322 9.34756 9.87848 9.69343 8.28711L2.48442 15.6498C2.47266 15.6619 2.46042 15.6727 2.44849 15.6844C1.35022 16.8102 0.734375 18.3286 0.734375 19.9107C0.734375 21.4928 1.35022 23.0112 2.44849 24.1369L12.7855 34.6935C13.3265 35.2481 13.9709 35.6884 14.6814 35.9889C15.3918 36.2894 16.1541 36.4442 16.9241 36.4442C17.6941 36.4442 18.4564 36.2894 19.1668 35.9889C19.8773 35.6884 20.5217 35.2481 21.0627 34.6935C22.161 33.5678 22.7768 32.0494 22.7768 30.4673C22.7768 28.8851 22.161 27.3667 21.0627 26.241L19.8044 24.9577Z" fill="#F7681C"/>
</g>
</g>
<defs>
<clipPath id="clip0_1225_89">
<rect width="172" height="40" fill="white"/>
</clipPath>
<clipPath id="clip1_1225_89">
<rect width="39.9773" height="40.0136" fill="white"/>
</clipPath>
</defs>
</svg>

<?xml version="1.0"?>
<svg width="172" height="40" xmlns="http://www.w3.org/2000/svg" xmlns:svg="http://www.w3.org/2000/svg">
 <defs>
  <clipPath id="clip0_1225_89">
   <rect fill="white" height="40" id="svg_1" width="172"/>
  </clipPath>
  <clipPath id="clip1_1225_89">
   <rect fill="white" height="40.01" id="svg_2" width="39.98"/>
  </clipPath>
 </defs>
 <g class="layer">
  <title>Layer 1</title>
  <g clip-path="url(#clip0_1225_89)" id="svg_3">
   <g clip-path="url(#clip1_1225_89)" id="svg_15">
    <path d="m37.57,15.73l-10.33,-10.56c-0.54,-0.55 -1.19,-0.99 -1.9,-1.29c-0.71,-0.3 -1.47,-0.46 -2.24,-0.46c-0.77,0 -1.53,0.16 -2.24,0.46c-0.71,0.3 -1.36,0.74 -1.9,1.29c-1.1,1.13 -1.71,2.65 -1.71,4.23c0,1.58 0.61,3.1 1.71,4.22l1.26,1.29l7.55,7.71c1.13,1.16 1.96,2.58 2.41,4.15c0.44,1.57 0.5,3.22 0.15,4.81l7.21,-7.36c0.01,-0.01 0.02,-0.03 0.04,-0.04c1.09,-1.12 1.71,-2.64 1.71,-4.22c0,-1.59 -0.62,-3.11 -1.72,-4.23z" fill="#4D4DDB" id="svg_16"/>
    <path d="m19.8,24.96l-7.54,-7.71c-1.14,-1.16 -1.96,-2.59 -2.41,-4.15c-0.45,-1.57 -0.5,-3.22 -0.16,-4.81l-7.21,7.36c-0.01,0.01 -0.02,0.02 -0.03,0.03c-1.1,1.13 -1.72,2.65 -1.72,4.23c0,1.58 0.62,3.1 1.72,4.23l10.34,10.55c0.54,0.56 1.18,1 1.89,1.3c0.71,0.3 1.47,0.45 2.24,0.45c0.77,0 1.54,-0.15 2.25,-0.45c0.71,-0.3 1.35,-0.74 1.89,-1.3c1.1,-1.12 1.72,-2.64 1.72,-4.22c0,-1.58 -0.62,-3.1 -1.72,-4.23l-1.26,-1.28z" fill="#F7681C" id="svg_17"/>
   </g>
   <text fill="#000000" font-family="Serif" font-size="24" id="svg_18" stroke-width="0" style="cursor: move;" text-anchor="middle" x="104" xml:space="preserve" y="27">EchoStressAI</text>
  </g>
 </g>
</svg>
